src/lib/packages/icons/src/assets/line/like-circle.svg

<svg width="24" height="24" viewBox="0 0 24 24" fill="none" xmlns="http://www.w3.org/2000/svg">
<path d="M12 1.25C6.072 1.25 1.25 6.072 1.25 12C1.25 17.928 6.072 22.75 12 22.75C17.928 22.75 22.75 17.928 22.75 12C22.75 6.072 17.928 1.25 12 1.25ZM12 21.25C6.899 21.25 2.75 17.101 2.75 12C2.75 6.899 6.899 2.75 12 2.75C17.101 2.75 21.25 6.899 21.25 12C21.25 17.101 17.101 21.25 12 21.25ZM15.115 9.16699H13.804V8.20898C13.804 7.42698 13.415 6.70101 12.765 6.26801C12.358 5.99701 11.859 5.93 11.397 6.078C10.933 6.227 10.5689 6.575 10.3879 7.06L9.34497 10.223H8.04102C7.19002 10.223 6.49902 10.914 6.49902 11.765V15.46C6.49902 16.31 7.19002 17.002 8.04102 17.002H14.0601C15.5381 17.002 15.997 16.235 16.274 15.407L17.33 12.24C17.613 11.388 17.542 10.604 17.13 10.032C16.846 9.63598 16.266 9.16699 15.115 9.16699ZM8 15.458V11.722H8.75V15.458H8ZM15.906 11.763L14.851 14.93C14.689 15.413 14.6611 15.5 14.0601 15.5L10.249 15.474V11.62C10.41 11.53 10.54 11.39 10.6 11.207L11.812 7.52899L11.933 7.51501C12.165 7.67001 12.304 7.92901 12.304 8.20801V9.91602C12.304 10.33 12.64 10.666 13.054 10.666H15.115C15.517 10.666 15.802 10.751 15.913 10.907C16.03 11.07 16.028 11.398 15.906 11.763Z" fill="currentColor"/>
</svg>

<svg xmlns="http://www.w3.org/2000/svg" width="24" height="24" fill="none"><path fill="currentColor" d="M12 1.25C6.072 1.25 1.25 6.072 1.25 12S6.072 22.75 12 22.75 22.75 17.928 22.75 12 17.928 1.25 12 1.25Zm0 20c-5.101 0-9.25-4.149-9.25-9.25S6.899 2.75 12 2.75s9.25 4.149 9.25 9.25-4.149 9.25-9.25 9.25Zm3.115-12.083h-1.311v-.958c0-.782-.389-1.508-1.039-1.941a1.584 1.584 0 0 0-2.377.792l-1.043 3.163H8.041c-.851 0-1.542.691-1.542 1.542v3.695c0 .85.691 1.542 1.542 1.542h6.02c1.477 0 1.936-.767 2.213-1.595l1.056-3.167c.283-.852.212-1.636-.2-2.208-.284-.396-.864-.865-2.015-.865ZM8 15.458v-3.736h.75v3.736H8Zm7.906-3.695-1.055 3.167c-.162.483-.19.57-.79.57l-3.812-.026V11.62a.74.74 0 0 0 .351-.413l1.212-3.678.121-.014a.832.832 0 0 1 .371.693v1.708c0 .414.336.75.75.75h2.061c.402 0 .687.085.798.241.117.163.115.491-.007.856Z"/></svg>
